X:30
T:Wearing of the Green
M:2/4
Q:1/4=100
L:1/8
K:G
%%MIDI channel 1
%%MIDI program 72
%%MIDI transpose 8
%%MIDI grace 1/8
%%MIDI ratio 3 1
G/A/|BB BB|Bd dB|BA AA|A3 d|ec g>e|ed BG|AG GG|"fine"G3||
g/f/|ee dB|dd G>A|BA Bc|B3 g/f/|ee dB|dd G>B|AG FE|"D.C. al fine"D3|]

